X:1
T: Fiddler's Heaven
C:
R:Jig
Q:180
K:D
M:6/8
L:1/16
Bc|d2A2F2 F2D2F2|d2e2d2 d2f2e2|d2A2F2 F2D2F2|A2F2E2 E2F2A2|d2A2F2 F2D2F2|d2e2d2 d2e2f2|e2c2A2 B2A2F2|E2A2A2 A4Bc|
d2A2F2 F2D2F2|d2e2d2 d2f2e2|d2A2F2 F2D2F2|A2F2E2 E2F2A2|d2A2F2 F2D2F2|d2e2d2 d2e2f2|e2c2A2 B2A2F2|E2A2A2 A4cd|
e2c2A2 A2c2A2|e2c2A2 A4cd|e2c2A2 B2A2F2|A2F2E2 E4cd|e2c2A2 A2c2A2|e2c2A2 d4B2|c2A2F2 E2F2A2|B2A2A2 A4cd|
e2c2A2 A2c2A2|e2c2A2 A4cd|e2c2A2 B2A2F2|A2F2E2 E4cd|e2c2A2 A2c2A2|e2c2A2 d4B2|c2A2F2 E2F2A2|B2A2A2 A4||
